src/assets/layout/Bell.svg

<?xml version="1.0" encoding="UTF-8"?>
<svg width="24px" height="24px" viewBox="0 0 24 24" version="1.1" xmlns="http://www.w3.org/2000/svg" xmlns:xlink="http://www.w3.org/1999/xlink">
    <title>Foundations/Icons/Bell@1x</title>
    <g id="💡-Icons" stroke="none" stroke-width="1" fill="none" fill-rule="evenodd">
        <g id="Foundations/Icons/Bell" fill="#000000" fill-rule="nonzero">
            <path d="M20.435505,17.4175072 L18.2181769,15.2096145 L18.2181769,9.64270553 C18.2306235,6.39931056 15.7830375,3.67433146 12.5569135,3.33983233 L12.5569135,2.56612634 C12.5569135,2.25346339 12.3034501,2 11.9907872,2 C11.6781242,2 11.4246608,2.25346339 11.4246608,2.56612634 L11.4246608,3.33983233 C8.16702601,3.63765765 5.67465753,6.37148711 5.67847852,9.64270553 L5.67847852,15.2096145 L3.47058582,17.4175072 C3.01145551,17.8827103 2.8740945,18.5769403 3.12147458,19.1819343 C3.36742534,19.7830373 3.95336834,20.17491 4.60283849,20.1726554 L9.07523654,20.1726554 C9.59936371,21.2879613 10.7207238,22 11.9530454,22 C13.1853671,22 14.3067271,21.2879613 14.8308543,20.1726554 L19.3032523,20.1726554 C19.950074,20.1736554 20.5326232,19.7815551 20.7751808,19.1819343 C21.0302221,18.5793271 20.8960457,17.8823553 20.435505,17.4175072 Z M11.9530454,20.8708778 C11.3607735,20.8717727 10.7968587,20.6173233 10.4056334,20.1726554 L13.5004574,20.1726554 C13.1092322,20.6173233 12.5453173,20.8717727 11.9530454,20.8708778 Z M19.7278471,18.7479041 C19.6633572,18.9261151 19.4927453,19.0436477 19.3032523,19.0404682 L4.60283849,19.0404682 C4.41158848,19.0420622 4.23905885,18.9257922 4.1688083,18.7479041 C4.08804665,18.5645076 4.12939288,18.3502589 4.27259812,18.2100841 L6.65032873,15.8040471 C6.74074479,15.6926875 6.7846857,15.5507246 6.77298944,15.4077587 L6.77298944,9.64270553 C6.69206039,7.75469797 7.6531958,5.97441931 9.27610105,5.00627645 C10.8990063,4.03813359 12.9221656,4.03813359 14.5450708,5.00627645 C16.1679761,5.97441931 17.1291115,7.75469797 17.0481824,9.64270553 L17.0481824,15.4077587 C17.0467744,15.5559387 17.1045041,15.698565 17.2085849,15.8040471 L19.5957509,18.2100841 C19.7514431,18.3419351 19.8047394,18.558927 19.7278471,18.7479041 Z" id="Shape"></path>
        </g>
    </g>
</svg>

<svg width="24" height="24" viewBox="0 0 24 24" xmlns="http://www.w3.org/2000/svg"><path d="M20.436 17.418l-2.218-2.208V9.643a6.312 6.312 0 00-5.661-6.303v-.774a.566.566 0 10-1.132 0v.774a6.322 6.322 0 00-5.747 6.303v5.567l-2.207 2.208a1.632 1.632 0 00-.35 1.764c.246.601.832.993 1.482.99h4.472a3.18 3.18 0 005.756 0h4.472a1.585 1.585 0 001.472-.99c.255-.603.121-1.3-.34-1.764zm-8.483 3.453a2.057 2.057 0 01-1.547-.698H13.5c-.39.444-.955.699-1.547.698zm7.775-2.123a.444.444 0 01-.425.292h-14.7a.462.462 0 01-.434-.292.481.481 0 01.104-.538l2.377-2.406a.557.557 0 00.123-.396V9.643a5.142 5.142 0 1110.275 0v5.765a.557.557 0 00.16.396l2.388 2.406a.472.472 0 01.132.538z" fill="#000" fill-rule="nonzero"/></svg>
